austria/municipalities/40433.svg

<?xml version="1.0" encoding="UTF-8"?>
<!DOCTYPE svg PUBLIC "-//W3C//DTD SVG 1.1//EN" "http://www.w3.org/Graphics/SVG/1.1/DTD/svg11.dtd">
<svg xmlns="http://www.w3.org/2000/svg" version="1.1" width="166px" height="207px" style="shape-rendering:geometricPrecision; text-rendering:geometricPrecision; image-rendering:optimizeQuality; fill-rule:evenodd; clip-rule:evenodd" xmlns:xlink="http://www.w3.org/1999/xlink">
<g><path style="opacity:1" fill="#000000" d="M -0.5,-0.5 C 54.8333,-0.5 110.167,-0.5 165.5,-0.5C 165.5,44.8333 165.5,90.1667 165.5,135.5C 160.391,165.452 144.058,186.952 116.5,200C 109.484,202.508 102.484,204.675 95.5,206.5C 86.8333,206.5 78.1667,206.5 69.5,206.5C 30.2166,197.885 6.88331,173.885 -0.5,134.5C -0.5,89.5 -0.5,44.5 -0.5,-0.5 Z"/></g>
<g><path style="opacity:1" fill="#fe9900" d="M 3.5,3.5 C 15.1857,3.16775 26.8523,3.50109 38.5,4.5C 52.8523,21.5142 67.519,38.1808 82.5,54.5C 97.6568,37.8411 112.657,21.0077 127.5,4C 138.828,3.50014 150.162,3.33348 161.5,3.5C 161.666,12.8393 161.5,22.1726 161,31.5C 144.539,50.9631 127.706,70.1298 110.5,89C 126.667,107.167 142.833,125.333 159,143.5C 156.179,159.227 148.512,172.227 136,182.5C 117.952,162.623 100.119,142.623 82.5,122.5C 64.5094,142.66 46.6761,162.993 29,183.5C 17.4417,172.941 9.60836,160.108 5.5,145C 21.2999,126.364 37.2999,107.864 53.5,89.5C 37.1874,70.0196 20.6874,50.6863 4,31.5C 3.50021,22.1726 3.33355,12.8393 3.5,3.5 Z"/></g>
<g><path style="opacity:1" fill="#006632" d="M 41.5,4.5 C 68.997,3.33635 96.6636,3.16969 124.5,4C 110.314,19.6848 96.3141,35.5182 82.5,51.5C 68.4089,36.0842 54.7423,20.4176 41.5,4.5 Z"/></g>
<g><path style="opacity:1" fill="#000000" d="M 19.5,12.5 C 22.7281,12.2994 25.8948,12.6328 29,13.5C 31.5702,15.538 34.4035,17.2047 37.5,18.5C 44.1533,15.16 48.1533,17.16 49.5,24.5C 48.1779,24.33 47.0113,24.6634 46,25.5C 45.2989,28.9283 45.6323,32.2617 47,35.5C 50.7906,39.953 54.6239,44.2864 58.5,48.5C 59.0606,50.4259 59.2273,52.4259 59,54.5C 67.051,63.7119 74.8843,73.0452 82.5,82.5C 90.5609,73.3917 98.3942,64.0584 106,54.5C 105.773,52.4259 105.939,50.4259 106.5,48.5C 109.909,44.1868 113.743,40.1868 118,36.5C 119.405,32.9279 119.738,29.2613 119,25.5C 117.989,24.6634 116.822,24.33 115.5,24.5C 116.804,16.4804 120.971,14.4804 128,18.5C 131.157,16.6828 134.323,14.8495 137.5,13C 143.726,10.9378 147.06,13.1045 147.5,19.5C 147.142,23.2429 145.809,26.5762 143.5,29.5C 150.307,35.561 149.974,41.3943 142.5,47C 141.207,47.49 139.873,47.6567 138.5,47.5C 138.5,44.8333 138.5,42.1667 138.5,39.5C 129.384,40.9497 124.384,46.283 123.5,55.5C 121.474,56.3697 120.141,57.8697 119.5,60C 115.768,59.812 112.934,61.312 111,64.5C 103.833,73.5 96.6667,82.5 89.5,91.5C 102.19,107.022 114.69,122.689 127,138.5C 129.097,139.991 131.43,140.991 134,141.5C 134.49,142.793 134.657,144.127 134.5,145.5C 137.792,145.12 140.125,146.453 141.5,149.5C 140.915,152.503 140.248,155.503 139.5,158.5C 136.329,161.335 133.496,161.002 131,157.5C 130.282,158.451 129.449,158.617 128.5,158C 126.984,156.103 126.317,153.936 126.5,151.5C 112.511,134.129 97.8442,116.796 82.5,99.5C 67.1954,116.763 52.5288,134.096 38.5,151.5C 38.628,153.655 38.128,155.655 37,157.5C 36,158.833 35,158.833 34,157.5C 31.3742,161.072 28.3742,161.405 25,158.5C 23.8413,155.384 23.3413,152.217 23.5,149C 25.4121,146.212 28.0787,144.879 31.5,145C 30.4744,142.536 31.3077,140.702 34,139.5C 34.7175,140.451 35.5509,140.617 36.5,140C 49.8601,124.108 62.8601,107.941 75.5,91.5C 67.0471,81.4253 58.7138,71.2586 50.5,61C 48.8333,60.6667 47.1667,60.3333 45.5,60C 44.8592,57.8697 43.5259,56.3697 41.5,55.5C 40.2472,46.5823 35.2472,41.249 26.5,39.5C 26.6633,41.8568 26.4966,44.1902 26,46.5C 23.9555,47.772 22.1222,47.4386 20.5,45.5C 14.9085,39.7378 15.2418,34.4044 21.5,29.5C 18.4358,24.1315 17.7691,18.4648 19.5,12.5 Z"/></g>
<g><path style="opacity:1" fill="#cb0000" d="M 38.5,29.5 C 38.2108,25.8936 38.5442,22.3936 39.5,19C 42.9472,17.8907 45.6138,18.8907 47.5,22C 44.6168,23.4316 43.2835,25.7649 43.5,29C 43.8144,32.7669 44.8144,36.2669 46.5,39.5C 45.1851,38.5244 43.8518,37.5244 42.5,36.5C 42.1667,36.8333 41.8333,37.1667 41.5,37.5C 42.8149,39.3159 44.3149,40.9825 46,42.5C 46.6667,43.5 46.6667,44.5 46,45.5C 38.9912,36.9941 31.8245,28.6608 24.5,20.5C 23.479,21.0016 23.3123,21.6683 24,22.5C 27.3349,25.8658 30.1682,29.5325 32.5,33.5C 29.5658,31.4489 26.3991,29.7823 23,28.5C 20.7931,24.1515 19.9598,19.4848 20.5,14.5C 25.6274,14.5635 30.294,16.0635 34.5,19C 35.8756,22.5311 37.2089,26.0311 38.5,29.5 Z"/></g>
<g><path style="opacity:1" fill="#ca0100" d="M 138.5,14.5 C 140.5,14.5 142.5,14.5 144.5,14.5C 145.041,19.449 144.208,24.1156 142,28.5C 138.781,29.7933 135.781,31.4599 133,33.5C 134.869,29.4988 137.536,25.8321 141,22.5C 141.167,22.1667 141.333,21.8333 141.5,21.5C 140.998,20.479 140.332,20.3123 139.5,21C 132.644,29.0215 125.977,37.1882 119.5,45.5C 119.167,45.1667 118.833,44.8333 118.5,44.5C 119.921,41.9906 121.588,39.6572 123.5,37.5C 122.998,36.479 122.332,36.3123 121.5,37C 120.289,39.8997 118.289,41.5663 115.5,42C 120.739,37.2823 122.572,31.449 121,24.5C 119.745,23.7894 118.579,22.956 117.5,22C 119.65,18.6403 122.483,17.807 126,19.5C 126.457,23.8823 126.457,28.2157 126,32.5C 127.969,28.7682 128.969,24.7682 129,20.5C 132.147,18.3503 135.313,16.3503 138.5,14.5 Z"/></g>
<g><path style="opacity:1" fill="#000000" d="M 38.5,29.5 C 39.8478,30.5268 40.3478,31.8602 40,33.5C 38.8118,32.4366 38.3118,31.1033 38.5,29.5 Z"/></g>
<g><path style="opacity:1" fill="#ca0000" d="M 32.5,33.5 C 36.835,37.6453 40.835,42.1453 44.5,47C 43.5,47.6667 42.5,47.6667 41.5,47C 38.4272,42.0919 34.0939,38.9253 28.5,37.5C 25.5904,38.1234 23.9237,39.9567 23.5,43C 23.9574,43.414 24.2907,43.914 24.5,44.5C 23.8333,45.8333 23.1667,45.8333 22.5,44.5C 18.4113,41.555 17.578,37.8884 20,33.5C 24.3251,31.9283 28.3251,32.595 32,35.5C 32.4643,34.9056 32.631,34.2389 32.5,33.5 Z"/></g>
<g><path style="opacity:1" fill="#cb0000" d="M 137.5,32.5 C 144.165,31.3345 146.998,34.0011 146,40.5C 144.315,42.0175 142.815,43.6841 141.5,45.5C 141.527,38.0176 138.193,35.851 131.5,39C 128.5,41.3333 125.833,44 123.5,47C 122.5,47.6667 121.5,47.6667 120.5,47C 124,42.8333 127.5,38.6667 131,34.5C 131.333,35.1667 131.667,35.8333 132,36.5C 134.167,35.5119 136,34.1786 137.5,32.5 Z"/></g>
<g><path style="opacity:1" fill="#006632" d="M 3.5,36.5 C 20.1501,53.1587 35.8167,70.8253 50.5,89.5C 35.147,106.685 19.9804,124.019 5,141.5C 3.52673,106.549 3.02673,71.5488 3.5,36.5 Z"/></g>
<g><path style="opacity:1" fill="#006632" d="M 159.5,36.5 C 160.833,53.1533 161.5,70.1533 161.5,87.5C 161.647,105.563 161.147,123.563 160,141.5C 144.833,124 129.667,106.5 114.5,89C 130.136,71.8775 145.136,54.3775 159.5,36.5 Z"/></g>
<g><path style="opacity:1" fill="#cb0000" d="M 46.5,39.5 C 47.6266,40.1217 48.6266,40.955 49.5,42C 47.5106,42.5192 46.5106,41.6859 46.5,39.5 Z"/></g>
<g><path style="opacity:1" fill="#cb0000" d="M 49.5,44.5 C 50.5,44.5 51.5,44.5 52.5,44.5C 52.6567,45.8734 52.49,47.2068 52,48.5C 49.3053,50.6944 46.472,52.6944 43.5,54.5C 41.8987,53.9653 41.3987,52.9653 42,51.5C 44.9985,49.6671 47.4985,47.3338 49.5,44.5 Z"/></g>
<g><path style="opacity:1" fill="#cb0000" d="M 112.5,44.5 C 116.004,45.8115 119.17,47.8115 122,50.5C 122.781,51.9437 122.614,53.277 121.5,54.5C 118.214,52.5488 115.214,50.2154 112.5,47.5C 111.209,46.4728 111.209,45.4728 112.5,44.5 Z"/></g>
<g><path style="opacity:1" fill="#cb0000" d="M 54.5,48.5 C 56.6859,48.5106 57.5192,49.5106 57,51.5C 54.3859,55.3006 50.8859,57.634 46.5,58.5C 46.238,57.0222 46.5713,55.6888 47.5,54.5C 50.0912,52.7188 52.4245,50.7188 54.5,48.5 Z"/></g>
<g><path style="opacity:1" fill="#cb0000" d="M 108.5,48.5 C 111.861,49.684 114.861,51.5173 117.5,54C 118.38,55.3561 118.714,56.8561 118.5,58.5C 113.782,57.1286 110.115,54.2952 107.5,50C 108.056,49.6174 108.389,49.1174 108.5,48.5 Z"/></g>
<g><path style="opacity:1" fill="#cb0000" d="M 108.5,54.5 C 110.296,55.7927 111.963,57.2927 113.5,59C 105.312,68.3535 97.3121,77.8535 89.5,87.5C 86.9529,88.5385 84.9529,87.7052 83.5,85C 91.722,74.7107 100.055,64.544 108.5,54.5 Z"/></g>
<g><path style="opacity:1" fill="#cb0000" d="M 54.5,55.5 C 55.9778,55.238 57.3112,55.5713 58.5,56.5C 81.6896,84.8553 104.69,113.355 127.5,142C 126.228,144.261 124.562,144.761 122.5,143.5C 99.0213,115.187 75.3547,87.0203 51.5,59C 52.7101,57.9609 53.7101,56.7942 54.5,55.5 Z"/></g>
<g><path style="opacity:1" fill="#cb0000" d="M 76.5,93.5 C 78.5596,94.2152 80.2263,95.5486 81.5,97.5C 68.5,112.833 55.5,128.167 42.5,143.5C 40.4382,144.761 38.7715,144.261 37.5,142C 50.7133,125.959 63.7133,109.792 76.5,93.5 Z"/></g>
<g><path style="opacity:1" fill="#006632" d="M 81.5,126.5 C 99.0917,144.935 116.258,163.935 133,183.5C 133.507,184.996 133.007,186.163 131.5,187C 109.322,202.619 84.9889,206.952 58.5,200C 53.7992,197.992 49.1325,195.992 44.5,194C 40.3333,191.167 36.1667,188.333 32,185.5C 31.3333,184.833 31.3333,184.167 32,183.5C 48.7092,164.628 65.2092,145.628 81.5,126.5 Z"/></g>
<g><path style="opacity:1" fill="#fefffe" d="M -0.5,134.5 C 6.88331,173.885 30.2166,197.885 69.5,206.5C 46.1667,206.5 22.8333,206.5 -0.5,206.5C -0.5,182.5 -0.5,158.5 -0.5,134.5 Z"/></g>
<g><path style="opacity:1" fill="#fefffe" d="M 165.5,135.5 C 165.5,159.167 165.5,182.833 165.5,206.5C 142.167,206.5 118.833,206.5 95.5,206.5C 102.484,204.675 109.484,202.508 116.5,200C 144.058,186.952 160.391,165.452 165.5,135.5 Z"/></g>
<g><path style="opacity:1" fill="#cb0000" d="M 32.5,142.5 C 36.1134,142.945 38.78,144.779 40.5,148C 40.1667,148.5 39.8333,149 39.5,149.5C 36.4571,147.791 34.1238,145.457 32.5,142.5 Z"/></g>
<g><path style="opacity:1" fill="#cb0000" d="M 129.5,142.5 C 130.675,142.281 131.675,142.614 132.5,143.5C 130.461,145.874 128.128,147.874 125.5,149.5C 125.167,149 124.833,148.5 124.5,148C 126.038,145.966 127.705,144.133 129.5,142.5 Z"/></g>
<g><path style="opacity:1" fill="#cb0000" d="M 27.5,147.5 C 34.7986,146.942 37.2986,149.942 35,156.5C 31.8333,154 28.6667,151.5 25.5,149C 26.4158,148.722 27.0825,148.222 27.5,147.5 Z"/></g>
<g><path style="opacity:1" fill="#cb0000" d="M 132.5,147.5 C 134.977,147.051 136.977,147.717 138.5,149.5C 135.812,152.022 132.979,154.356 130,156.5C 128.368,154.293 128.368,151.96 130,149.5C 130.995,148.934 131.828,148.267 132.5,147.5 Z"/></g>
<g><path style="opacity:1" fill="#cb0000" d="M 26.5,152.5 C 27.8853,153.614 29.3853,154.614 31,155.5C 30.6336,159.074 29.1336,159.407 26.5,156.5C 25.6371,155.274 25.6371,153.94 26.5,152.5 Z"/></g>
<g><path style="opacity:1" fill="#cb0000" d="M 137.5,152.5 C 139.008,155.08 138.341,157.08 135.5,158.5C 134.692,158.192 134.025,157.692 133.5,157C 135.041,155.629 136.375,154.129 137.5,152.5 Z"/></g>
</svg>

<svg xmlns="http://www.w3.org/2000/svg" width="166" height="207" style="shape-rendering:geometricPrecision;text-rendering:geometricPrecision;image-rendering:optimizeQuality;fill-rule:evenodd;clip-rule:evenodd"><path style="opacity:1" d="M-.5-.5h166v136c-5.109 29.952-21.442 51.452-49 64.5a250.624 250.624 0 0 1-21 6.5h-26c-39.283-8.615-62.617-32.615-70-72V-.5z"/><path style="opacity:1" fill="#fe9900" d="M3.5 3.5a307.125 307.125 0 0 1 35 1 1588.241 1588.241 0 0 0 44 50 3270.475 3270.475 0 0 0 45-50.5c11.328-.5 22.662-.667 34-.5.166 9.34 0 18.673-.5 28A2052.9 2052.9 0 0 1 110.5 89l48.5 54.5c-2.821 15.727-10.488 28.727-23 39a4451.456 4451.456 0 0 1-53.5-60 4716.738 4716.738 0 0 0-53.5 61C17.442 172.941 9.608 160.108 5.5 145c15.8-18.636 31.8-37.136 48-55.5A4071.607 4071.607 0 0 0 4 31.5c-.5-9.327-.666-18.66-.5-28z"/><path style="opacity:1" fill="#006632" d="M41.5 4.5a1150.892 1150.892 0 0 1 83-.5 2819.289 2819.289 0 0 0-42 47.5 1337.639 1337.639 0 0 1-41-47z"/><path style="opacity:1" d="M19.5 12.5c3.228-.2 6.395.133 9.5 1a35.91 35.91 0 0 0 8.5 5c6.653-3.34 10.653-1.34 12 6-1.322-.17-2.489.163-3.5 1-.701 3.428-.368 6.762 1 10a451.017 451.017 0 0 0 11.5 13c.56 1.926.727 3.926.5 6a909.878 909.878 0 0 1 23.5 28 698.317 698.317 0 0 0 23.5-28c-.227-2.074-.061-4.074.5-6a88.256 88.256 0 0 1 11.5-12c1.405-3.572 1.738-7.239 1-11-1.011-.837-2.178-1.17-3.5-1 1.304-8.02 5.471-10.02 12.5-6 3.157-1.817 6.323-3.65 9.5-5.5 6.226-2.062 9.56.104 10 6.5-.358 3.743-1.691 7.076-4 10 6.807 6.061 6.474 11.894-1 17.5a8.435 8.435 0 0 1-4 .5v-8c-9.116 1.45-14.116 6.783-15 16-2.026.87-3.359 2.37-4 4.5-3.732-.188-6.566 1.312-8.5 4.5l-21.5 27a2524.978 2524.978 0 0 1 37.5 47 17.958 17.958 0 0 0 7 3 8.43 8.43 0 0 1 .5 4c3.292-.38 5.625.953 7 4a176.649 176.649 0 0 1-2 9c-3.171 2.835-6.004 2.502-8.5-1-.718.951-1.551 1.117-2.5.5-1.516-1.897-2.183-4.064-2-6.5-13.989-17.371-28.656-34.704-44-52a1452.37 1452.37 0 0 0-44 52 10.098 10.098 0 0 1-1.5 6c-1 1.333-2 1.333-3 0-2.626 3.572-5.626 3.905-9 1-1.159-3.116-1.659-6.283-1.5-9.5 1.912-2.788 4.579-4.121 8-4-1.026-2.464-.192-4.298 2.5-5.5.718.951 1.55 1.117 2.5.5a1426.335 1426.335 0 0 0 39-48.5 1719.53 1719.53 0 0 1-25-30.5l-5-1c-.64-2.13-1.974-3.63-4-4.5-1.253-8.918-6.253-14.251-15-16a24.939 24.939 0 0 1-.5 7c-2.044 1.272-3.878.939-5.5-1-5.591-5.762-5.258-11.096 1-16-3.064-5.369-3.73-11.035-2-17z"/><path style="opacity:1" fill="#cb0000" d="M38.5 29.5c-.29-3.606.044-7.106 1-10.5 3.447-1.11 6.114-.11 8 3-2.883 1.432-4.217 3.765-4 7 .314 3.767 1.314 7.267 3 10.5a493.061 493.061 0 0 1-4-3l-1 1a31.857 31.857 0 0 0 4.5 5c.667 1 .667 2 0 3a780.52 780.52 0 0 0-21.5-25c-1.021.502-1.188 1.168-.5 2 3.335 3.366 6.168 7.032 8.5 11a43.003 43.003 0 0 0-9.5-5c-2.207-4.349-3.04-9.015-2.5-14 5.127.063 9.794 1.564 14 4.5a740.61 740.61 0 0 1 4 10.5z"/><path style="opacity:1" fill="#ca0100" d="M138.5 14.5h6c.541 4.949-.292 9.616-2.5 14a40.985 40.985 0 0 0-9 5c1.869-4.001 4.536-7.668 8-11l.5-1c-.502-1.021-1.168-1.188-2-.5a698.819 698.819 0 0 0-20 24.5l-1-1a40.935 40.935 0 0 1 5-7c-.502-1.021-1.168-1.188-2-.5-1.211 2.9-3.211 4.566-6 5 5.239-4.718 7.072-10.551 5.5-17.5a20.477 20.477 0 0 1-3.5-2.5c2.15-3.36 4.983-4.193 8.5-2.5a61.803 61.803 0 0 1 0 13c1.969-3.732 2.969-7.732 3-12a153.35 153.35 0 0 1 9.5-6z"/><path style="opacity:1" d="M38.5 29.5c1.348 1.027 1.848 2.36 1.5 4-1.188-1.063-1.688-2.397-1.5-4z"/><path style="opacity:1" fill="#ca0000" d="M32.5 33.5a112.056 112.056 0 0 1 12 13.5c-1 .667-2 .667-3 0-3.073-4.908-7.406-8.075-13-9.5-2.91.623-4.576 2.457-5 5.5.457.414.79.914 1 1.5-.667 1.333-1.333 1.333-2 0-4.089-2.945-4.922-6.612-2.5-11 4.325-1.572 8.325-.905 12 2a2.428 2.428 0 0 0 .5-2z"/><path style="opacity:1" fill="#cb0000" d="M137.5 32.5c6.665-1.166 9.498 1.501 8.5 8a31.867 31.867 0 0 0-4.5 5c.027-7.482-3.307-9.649-10-6.5-3 2.333-5.667 5-8 8-1 .667-2 .667-3 0L131 34.5l1 2c2.167-.988 4-2.321 5.5-4z"/><path style="opacity:1" fill="#006632" d="M3.5 36.5a595.964 595.964 0 0 1 47 53 3348.132 3348.132 0 0 0-45.5 52 1887.553 1887.553 0 0 1-1.5-105zM159.5 36.5c1.333 16.653 2 33.653 2 51a750.242 750.242 0 0 1-1.5 54L114.5 89a1094.03 1094.03 0 0 0 45-52.5z"/><path style="opacity:1" fill="#cb0000" d="M46.5 39.5a10.521 10.521 0 0 1 3 2.5c-1.99.52-2.99-.314-3-2.5zM49.5 44.5h3a8.434 8.434 0 0 1-.5 4 75.649 75.649 0 0 1-8.5 6c-1.601-.535-2.101-1.535-1.5-3a25.111 25.111 0 0 0 7.5-7zM112.5 44.5c3.504 1.312 6.67 3.312 9.5 6 .781 1.444.614 2.777-.5 4a45.583 45.583 0 0 1-9-7c-1.291-1.027-1.291-2.027 0-3zM54.5 48.5c2.186.01 3.02 1.01 2.5 3-2.614 3.8-6.114 6.134-10.5 7-.262-1.478.071-2.811 1-4a42.546 42.546 0 0 0 7-6zM108.5 48.5c3.361 1.184 6.361 3.017 9 5.5.88 1.356 1.214 2.856 1 4.5-4.718-1.371-8.385-4.205-11-8.5.556-.383.889-.883 1-1.5zM108.5 54.5a31.418 31.418 0 0 1 5 4.5 971.718 971.718 0 0 0-24 28.5c-2.547 1.038-4.547.205-6-2.5a1580.748 1580.748 0 0 1 25-30.5zM54.5 55.5c1.478-.262 2.811.071 4 1a8429.597 8429.597 0 0 1 69 85.5c-1.272 2.261-2.938 2.761-5 1.5a8527.422 8527.422 0 0 0-71-84.5 14.692 14.692 0 0 0 3-3.5zM76.5 93.5c2.06.715 3.726 2.049 5 4l-39 46c-2.062 1.261-3.728.761-5-1.5a2636.36 2636.36 0 0 0 39-48.5z"/><path style="opacity:1" fill="#006632" d="M81.5 126.5a1417.427 1417.427 0 0 1 51.5 57c.507 1.496.007 2.663-1.5 3.5-22.178 15.619-46.511 19.952-73 13-4.7-2.008-9.367-4.008-14-6L32 185.5c-.667-.667-.667-1.333 0-2a3927.125 3927.125 0 0 0 49.5-57z"/><path style="opacity:1" fill="#fefffe" d="M-.5 134.5c7.383 39.385 30.717 63.385 70 72h-70v-72zM165.5 135.5v71h-70a250.624 250.624 0 0 0 21-6.5c27.558-13.048 43.891-34.548 49-64.5z"/><path style="opacity:1" fill="#cb0000" d="M32.5 142.5c3.613.445 6.28 2.279 8 5.5l-1 1.5c-3.043-1.709-5.376-4.043-7-7zM129.5 142.5c1.175-.219 2.175.114 3 1a29.964 29.964 0 0 1-7 6l-1-1.5a40.124 40.124 0 0 1 5-5.5zM27.5 147.5c7.299-.558 9.799 2.442 7.5 9l-9.5-7.5c.916-.278 1.582-.778 2-1.5zM132.5 147.5c2.477-.449 4.477.217 6 2a84.86 84.86 0 0 1-8.5 7c-1.632-2.207-1.632-4.54 0-7 .995-.566 1.828-1.233 2.5-2zM26.5 152.5a30.818 30.818 0 0 0 4.5 3c-.366 3.574-1.866 3.907-4.5 1-.863-1.226-.863-2.56 0-4zM137.5 152.5c1.508 2.58.841 4.58-2 6a4.457 4.457 0 0 1-2-1.5 25.14 25.14 0 0 0 4-4.5z"/></svg>
